svg/color/lido2.svg

<svg width="64" height="65" viewBox="0 0 64 65" fill="none" xmlns="http://www.w3.org/2000/svg">
<rect y="0.303711" width="64" height="64" rx="32" fill="url(#paint0_linear_28696_5939)"/>
<rect x="0.5" y="0.803711" width="63" height="63" rx="31.5" stroke="#070B14" stroke-opacity="0.15"/>
<mask id="mask0_28696_5939" style="mask-type:luminance" maskUnits="userSpaceOnUse" x="16" y="30" width="32" height="25">
<path d="M31.7409 37.4941L18.8185 30.1165L18.4705 30.6501C14.5033 36.7517 15.3849 44.7325 20.6049 49.8597C26.7529 55.8917 36.7289 55.8917 42.8769 49.8597C48.0969 44.7325 48.9785 36.7517 45.0113 30.6501L44.6633 30.1165L31.7409 37.4941Z" fill="white"/>
</mask>
<g mask="url(#mask0_28696_5939)">
<path d="M31.7408 54.8476C40.4409 54.8476 47.4936 47.7949 47.4936 39.0948C47.4936 30.3948 40.4409 23.342 31.7408 23.342C23.0408 23.342 15.988 30.3948 15.988 39.0948C15.988 47.7949 23.0408 54.8476 31.7408 54.8476Z" fill="url(#paint1_radial_28696_5939)"/>
</g>
<path d="M31.7642 22.6693L18.8186 30.1165L31.741 37.4941L44.6402 30.1165L31.7642 22.6693Z" fill="url(#paint2_radial_28696_5939)"/>
<path d="M31.741 10.3037L20.605 27.3789L31.741 33.7357V10.3037Z" fill="url(#paint3_linear_28696_5939)"/>
<path d="M31.741 33.7357L42.877 27.3789L31.741 10.3037V33.7357Z" fill="url(#paint4_linear_28696_5939)"/>
<defs>
<linearGradient id="paint0_linear_28696_5939" x1="32" y1="0.303711" x2="32" y2="64.3037" gradientUnits="userSpaceOnUse">
<stop stop-color="#F89791"/>
<stop offset="1" stop-color="#F7C882"/>
</linearGradient>
<radialGradient id="paint1_radial_28696_5939" cx="0" cy="0" r="1" gradientUnits="userSpaceOnUse" gradientTransform="translate(31.7111 51.9885) rotate(-90.4664) scale(21.0371 25.0749)">
<stop stop-color="#C5C6AB"/>
<stop offset="1" stop-color="#7985AB"/>
</radialGradient>
<radialGradient id="paint2_radial_28696_5939" cx="0" cy="0" r="1" gradientUnits="userSpaceOnUse" gradientTransform="translate(31.7294 30.0817) scale(0.649786)">
<stop stop-color="#AEE6F9" stop-opacity="0.8588"/>
<stop offset="1" stop-color="#C8D6DC"/>
</radialGradient>
<linearGradient id="paint3_linear_28696_5939" x1="26.173" y1="9.14371" x2="26.173" y2="32.3437" gradientUnits="userSpaceOnUse">
<stop stop-color="#77D4FF"/>
<stop offset="1" stop-color="#93D6F2" stop-opacity="0.898"/>
</linearGradient>
<linearGradient id="paint4_linear_28696_5939" x1="37.309" y1="9.14371" x2="37.309" y2="32.3437" gradientUnits="userSpaceOnUse">
<stop stop-color="#506AAC"/>
<stop offset="1" stop-color="#96CFEF" stop-opacity="0.8196"/>
</linearGradient>
</defs>
</svg>

<svg xmlns="http://www.w3.org/2000/svg" width="64" height="65" fill="none" viewBox="0 0 64 65"><rect width="64" height="64" y=".304" fill="url(#lido2_svg-a)" rx="32"/><rect width="63" height="63" x=".5" y=".804" stroke="#070B14" stroke-opacity=".15" rx="31.5"/><mask id="lido2_svg-b" width="32" height="25" x="16" y="30" maskUnits="userSpaceOnUse" style="mask-type:luminance"><path fill="#fff" d="m31.74 37.494-12.92-7.378-.348.534c-3.968 6.102-3.086 14.083 2.134 19.21 6.148 6.032 16.124 6.032 22.272 0 5.22-5.127 6.101-13.108 2.134-19.21l-.348-.534z"/></mask><g mask="url(#lido2_svg-b)"><path fill="url(#lido2_svg-c)" d="M31.74 54.848c8.7 0 15.754-7.053 15.754-15.753S40.44 23.342 31.74 23.342s-15.753 7.053-15.753 15.753S23.04 54.848 31.74 54.848"/></g><path fill="url(#lido2_svg-d)" d="M31.764 22.67 18.82 30.115l12.922 7.378 12.9-7.378z"/><path fill="url(#lido2_svg-e)" d="M31.741 10.304 20.605 27.379l11.136 6.357z"/><path fill="url(#lido2_svg-f)" d="m31.741 33.736 11.136-6.357-11.136-17.075z"/><defs><linearGradient id="lido2_svg-a" x1="32" x2="32" y1=".304" y2="64.304" gradientUnits="userSpaceOnUse"><stop stop-color="#F89791"/><stop offset="1" stop-color="#F7C882"/></linearGradient><linearGradient id="lido2_svg-e" x1="26.173" x2="26.173" y1="9.144" y2="32.344" gradientUnits="userSpaceOnUse"><stop stop-color="#77D4FF"/><stop offset="1" stop-color="#93D6F2" stop-opacity=".898"/></linearGradient><linearGradient id="lido2_svg-f" x1="37.309" x2="37.309" y1="9.144" y2="32.344" gradientUnits="userSpaceOnUse"><stop stop-color="#506AAC"/><stop offset="1" stop-color="#96CFEF" stop-opacity=".82"/></linearGradient><radialGradient id="lido2_svg-c" cx="0" cy="0" r="1" gradientTransform="rotate(-90.466 41.64 10.267)scale(21.0371 25.0749)" gradientUnits="userSpaceOnUse"><stop stop-color="#C5C6AB"/><stop offset="1" stop-color="#7985AB"/></radialGradient><radialGradient id="lido2_svg-d" cx="0" cy="0" r="1" gradientTransform="translate(31.73 30.082)scale(.64979)" gradientUnits="userSpaceOnUse"><stop stop-color="#AEE6F9" stop-opacity=".859"/><stop offset="1" stop-color="#C8D6DC"/></radialGradient></defs></svg>
